X: 1
T: The Factory Girl
M: 3/4
L: 1/8
K: Gmaj
d|e3e dB|d2 d2 BB|A2 B3A|G2 E2 d2|
e3 e dB|d2 d2 B2|A2 G3A|B4 d2|
e3 e dB|d2 d2 B2|A2 B3A|G2 E2 EF|
G2 A2 B2|d2 d2 B2|A2 G2 E2|D2 E4|]





